X: 10253
M: 2/4
L: 1/16
K: G
(uBc) |\
(d^c)de (d=c)BA | G2G2 {A}GFGA |\
(d^c)de (d=c)BA |
gfga (b2ag) | fgaf d2((3def) |
gfga b2(ag) | fgaf d2g2 |\
dcBc defg | dcBc defg |\
(ef)ge (fg)af | g2b2"_D.C. Fine."g2 :|


